X: 15
I: linebreak $
T: Petagay
T: for three
C: 
C: Music for La Duches
P: A BBB C D
N: 
K: A minor
M: 4/4
L: 1/8
P: A
"^Drone: A"e3f ed/c/BA | cdfe ed/c/BA | c3/d/ef g2e2 | fde2 d4 |: 
M: 6/8
P: B (3x)
e3 f3 | a2g e2f | g3 e3 "^(3)":| 
M: 4/4
P: C
eeef ed/c/BA | cdfe ed/c/BA | c3/d/ef g2e2 | fde2 d4 | 
P: D
e3f ed/c/BA | cdfe e4 |] 


